svg/device-desktop.svg

<svg height="1024" width="1024" xmlns="http://www.w3.org/2000/svg">
  <path d="M960 64c-32 0-864 0-896 0s-64 32-64 64 0 544 0 576 32 64 64 64 320 0 320 0-192 64-192 128c0 32 32 64 64 64s480 0 512 0 64-32 64-64c0-64-192-128-192-128s288 0 320 0 64-32 64-64 0-544 0-576-32-64-64-64z m0 640h-896v-576h896v576z m-64-512h-192c-384 64-542 300-576 384v64h768v-448z" />
</svg>

<svg height="1024" width="1024" xmlns="http://www.w3.org/2000/svg">
  <path d="M960 64c-64 0-896 0-896 0C0 64 0 128 0 128v576c0 0 0 64 64 64h320c0 0-192 64-192 128s64 64 64 64h512c0 0 64 0 64-64S640 768 640 768h320c64 0 64-64 64-64V128C1024 128 1024 64 960 64zM960 704H64V128h896V704zM896 192H704c-384 64-576 384-576 384v64h768V192z" />
</svg>
